svg/overseerr.svg

<svg fill="none" version="1.1" viewBox="0 0 1500 1500" xmlns="http://www.w3.org/2000/svg"><g transform="scale(15.625)"><circle cx="49.343" cy="48.776" r="27.224" fill="#131928" stroke="#131928" stroke-width="20"/><g clip-rule="evenodd" fill-rule="evenodd"><path d="m48 96c26.51 0 48-21.49 48-48s-21.49-48-48-48-48 21.49-48 48 21.49 48 48 48zm32-44c0 15.464-12.536 28-28 28s-28-12.536-28-28c0-2.8697 0.4317-5.6385 1.2337-8.2452 2.195 4.8617 7.0856 8.2452 12.766 8.2452 7.732 0 14-6.268 14-14 0-5.6808-3.3835-10.571-8.2451-12.766 2.6066-0.802 5.3754-1.2337 8.2451-1.2337 15.464 0 28 12.536 28 28z" fill="url(#b)"/><path d="m80 52c0 15.464-12.536 28-28 28-15.136 0-27.467-12.01-27.983-27.021-0.0113 0.3389-0.017 0.6792-0.017 1.0209 0 16.568 13.432 30 30 30s30-13.432 30-30-13.432-30-30-30c-0.3403 0-0.6793 0.0057-1.0169 0.0169 15.009 0.5178 27.017 12.848 27.017 27.983z" fill="#131928" opacity=".2"/><path d="m48 12c-19.882 0-36 16.118-36 36 0 2.2091-1.7909 4-4 4-2.2091 0-4-1.7909-4-4 0-24.3 19.7-44 44-44 2.2091 0 4 1.7909 4 4 0 2.2091-1.7909 4-4 4z" fill="url(#a)"/></g></g><defs><linearGradient id="b" x1="48" x2="117.5" y2="69.5" gradientUnits="userSpaceOnUse"><stop stop-color="#C395FC" offset="0"/><stop stop-color="#4F65F5" offset="1"/></linearGradient><linearGradient id="a" x1="28" x2="28" y1="8" y2="48" gradientUnits="userSpaceOnUse"><stop stop-color="#fff" stop-opacity=".4" offset="0"/><stop stop-color="#fff" stop-opacity="0" offset="1"/></linearGradient></defs></svg>

<svg xmlns="http://www.w3.org/2000/svg" xmlns:svg="http://www.w3.org/2000/svg" id="svg20" width="96" height="96" fill="none" version="1.1" viewBox="0 0 96 96"><path id="path2" fill="url(#paint0_linear)" fill-rule="evenodd" d="M48 96C74.5097 96 96 74.5097 96 48C96 21.4903 74.5097 0 48 0C21.4903 0 0 21.4903 0 48C0 74.5097 21.4903 96 48 96ZM80.0001 52C80.0001 67.464 67.4641 80 52.0001 80C36.5361 80 24.0001 67.464 24.0001 52C24.0001 49.1303 24.4318 46.3615 25.2338 43.7548C27.4288 48.6165 32.3194 52 38.0001 52C45.7321 52 52.0001 45.732 52.0001 38C52.0001 32.3192 48.6166 27.4287 43.755 25.2337C46.3616 24.4317 49.1304 24 52.0001 24C67.4641 24 80.0001 36.536 80.0001 52Z" clip-rule="evenodd"/><path id="path4" fill="#131928" fill-rule="evenodd" d="M80.0002 52C80.0002 67.464 67.4642 80 52.0002 80C36.864 80 24.5329 67.9897 24.017 52.9791C24.0057 53.318 24 53.6583 24 54C24 70.5685 37.4315 84 54 84C70.5685 84 84 70.5685 84 54C84 37.4315 70.5685 24 54 24C53.6597 24 53.3207 24.0057 52.9831 24.0169C67.9919 24.5347 80.0002 36.865 80.0002 52Z" clip-rule="evenodd" opacity=".2"/><path id="path6" fill="url(#paint1_linear)" fill-rule="evenodd" d="M48 12C28.1177 12 12 28.1177 12 48C12 50.2091 10.2091 52 8 52C5.79086 52 4 50.2091 4 48C4 23.6995 23.6995 4 48 4C50.2091 4 52 5.79086 52 8C52 10.2091 50.2091 12 48 12Z" clip-rule="evenodd"/><defs id="defs18"><linearGradient id="paint0_linear" x1="48" x2="117.5" y1="0" y2="69.5" gradientUnits="userSpaceOnUse"><stop id="stop8" stop-color="#C395FC"/><stop id="stop10" offset="1" stop-color="#4F65F5"/></linearGradient><linearGradient id="paint1_linear" x1="28" x2="28" y1="8" y2="48" gradientUnits="userSpaceOnUse"><stop id="stop13" stop-color="#fff" stop-opacity=".4"/><stop id="stop15" offset="1" stop-color="#fff" stop-opacity="0"/></linearGradient></defs></svg>
